humanity-icon-theme/Humanity/apps/22/apport.svg

<?xml version="1.0" encoding="UTF-8" standalone="no"?>
<!-- Created with Inkscape (http://www.inkscape.org/) -->

<svg
   xmlns:svg="http://www.w3.org/2000/svg"
   xmlns="http://www.w3.org/2000/svg"
   version="1.0"
   width="22"
   height="22"
   id="svg3356">
  <defs
     id="defs3358" />
  <g
     id="layer1">
    <path
       d="m 18.268116,14.192801 -2.581731,0.05471 2.672213,5.102294 -5.310506,-3.212153 -0.197076,2.563463 L 11.291429,16.239622 8.433522,18.902121 8.255456,15.585739 2.649965,17.610102 6.558955,12.354628 2.990122,11.19986 7.147151,9.8639496 3.035271,5.8099274 7.956312,6.8843362 7.938174,2.6501906 l 3.425422,3.1089006 1.530813,-2.0687537 0.622382,2.197483 5.798899,-3.1191504 -2.986173,6.5660189 3.020518,0.99833 -3.063291,1.975181 1.981372,1.884601 z"
       id="path2299"
       style="fill:none;stroke:#ff0f0f;stroke-width:1.29999959;stroke-linecap:round;stroke-linejoin:round;stroke-miterlimit:4;stroke-opacity:1" />
    <path
       d="m 10,7 2,0 -0.272811,5 -1.480376,0 L 10,7 z"
       id="path2233"
       style="fill:#ff0f0f;fill-opacity:1" />
    <path
       d="m 10,13 2,0 0,2 -2,0 0,-2 z"
       id="path49"
       style="fill:#ff0f0f;fill-opacity:1" />
  </g>
</svg>

<?xml version="1.0" encoding="UTF-8" standalone="no"?>
<!-- Created with Inkscape (http://www.inkscape.org/) -->
<svg id="svg3356" xmlns="http://www.w3.org/2000/svg" height="22" width="22" version="1.0">
 <g id="layer1">
  <path id="path2299" style="stroke-linejoin:round;stroke:#ff0f0f;stroke-linecap:round;stroke-width:1.3;fill:none" d="m18.268 14.193-2.5817 0.05471 2.6722 5.1023-5.3105-3.2122-0.19708 2.5635l-1.56-2.462-2.8575 2.662-0.178-3.316-5.6055 2.024 3.909-5.255-3.5689-1.155 4.1571-1.3361-4.1119-4.054 4.921 1.0744-0.0181-4.2341 3.4254 3.1089 1.5308-2.0688 0.62238 2.1975 5.7989-3.1192-2.9862 6.566 3.0205 0.99833-3.0633 1.9752 1.9814 1.8846z"/>
  <path id="path2233" style="fill:#ff0f0f" d="m10 7h2l-0.27281 5h-1.4804l-0.247-5z"/>
  <path id="path49" style="fill:#ff0f0f" d="m10 13h2v2h-2v-2z"/>
 </g>
</svg>
